src/img/categories/man.svg

<svg width="15" height="41" viewBox="0 0 15 41" fill="none" xmlns="http://www.w3.org/2000/svg">
<path d="M14.9042 16.662C15.1109 15.5125 14.6168 13.9313 14.553 13.1633C14.6 12.061 14.0741 11.167 14.1379 10.799C14.3144 10.4478 14.1379 9.84112 14.0102 9.15382C13.9631 7.38098 13.6119 7.38098 13.3884 7.31712C12.9398 6.86845 10.9283 6.10218 10.7838 6.10218C10.6409 6.10218 9.8898 5.20819 9.84275 5.03175C10.0343 4.47216 9.51675 4.13104 9.34871 4.27556C9.68479 4.40327 9.57052 5.35271 9.55372 5.60645C9.4092 5.49386 9.01094 5.41488 8.88323 5.74929C8.75552 6.42146 8.40431 7.21966 8.24467 7.50701C8.08503 7.79436 7.41454 9.50335 7.06333 10.2226C6.98267 9.95035 6.87176 8.9757 6.74405 8.60937C6.40796 8.30521 6.02651 7.50701 5.96265 7.20453C6.0097 6.85332 5.81813 5.59133 5.89879 5.36783C5.97777 5.14433 6.05844 4.72927 6.05844 4.72927C6.05844 4.73095 6.05844 4.73095 6.05844 4.73263C6.05844 4.73263 6.05843 4.73095 6.06011 4.73095L6.07524 4.79145C6.07524 4.79145 6.39284 5.46529 6.8079 5.68711C6.99947 5.86356 7.05325 5.89884 7.15575 5.90389C7.41118 5.91565 7.78255 5.7997 8.10183 5.51235C8.41943 5.22667 8.60428 5.23004 9.24788 4.46376C9.24788 4.4604 9.24788 4.45704 9.24788 4.45368C9.28485 4.44024 9.27645 4.3142 9.31174 4.25203C9.33694 4.21002 9.34198 4.05542 9.3403 3.90754C9.45121 3.98484 9.61085 3.63531 9.69823 3.29251C9.84779 2.78166 9.63606 2.56656 9.48986 2.54136C9.48146 2.49263 9.43777 2.3834 9.40752 2.35987C9.40248 2.35651 9.38735 2.32122 9.37559 2.29938C9.44785 2.212 9.62933 1.9885 9.78561 1.72635C10.0965 0.951678 8.94036 0.472757 8.6194 0.360169C8.39759 0.282869 7.82792 0.20557 7.36244 0.187085C7.35908 0.138353 7.23641 0.0980225 7.08181 0.0980225C6.92553 0.0980225 6.79782 0.140033 6.79782 0.190446C6.79782 0.198848 6.81799 0.203889 6.82471 0.212291C6.18951 0.382014 5.43836 1.12308 5.32745 1.24911C5.21654 1.37682 4.91239 1.51294 4.93591 1.95993C5.02329 2.83039 5.16781 2.8472 5.40643 2.89425C5.40643 2.94298 5.54254 3.02196 5.54254 3.02196C5.54591 3.02364 5.55263 3.01692 5.55599 3.01692C5.55767 3.34628 5.5896 3.54625 5.69546 3.53281C5.69546 3.69245 5.99962 4.57131 6.05507 4.73095C6.05507 4.73095 5.54423 4.85866 5.43164 5.13089C5.52742 5.16282 5.70219 5.86524 5.65513 5.88204C5.60808 5.89884 5.15941 5.83499 5.15941 5.83499C5.15941 5.83499 5.12748 6.1862 5.19134 6.40969C4.37801 6.67856 3.38656 7.39778 3.11601 7.57423C2.84547 7.74899 3.05216 9.44286 2.90932 9.90497C2.7648 10.352 2.54131 11.7736 2.54131 12.1887C2.54131 12.6037 1.98509 14.1783 1.92627 14.6572C1.86578 15.1361 1.20705 17.5207 1.13479 17.8803C1.06254 18.2399 0.870968 19.7254 0.786947 20.0245C0.704606 20.3186 0.995319 20.4496 1.0054 20.453C0.956669 20.8025 0.9197 21.1773 0.95835 21.31C1.03733 21.5806 1.2289 22.2998 1.32636 22.5233C1.42215 22.7468 2.07751 23.6088 2.34806 23.4492C2.42872 23.3383 2.41192 23.1938 2.41192 23.1938C2.41192 23.1938 2.748 23.1467 2.41192 22.8258C2.63541 22.73 2.62029 22.4745 2.1733 22.2981C1.83889 22.1553 1.75823 22.0107 1.82209 21.3873C1.91787 21.2915 2.10944 21.2445 2.10944 21.2445C2.10944 21.2445 2.31781 21.9956 2.57156 21.9956C2.82698 21.9956 2.92276 21.7402 2.79505 21.4041C2.67238 21.0815 2.77993 20.616 2.6455 20.3387C2.65222 20.3421 2.66398 20.3522 2.66566 20.3522C2.72616 20.3522 3.00174 19.5439 3.27733 18.9675C3.16979 19.6632 3.44538 21.5436 3.37312 21.9267C3.30086 22.3099 3.09753 24.9212 3.09753 25.1968C3.09753 25.2456 3.17651 25.2842 3.28406 25.3161C3.16475 26.0622 3.237 27.6906 3.38488 27.904C3.55292 28.1443 3.69744 29.6046 4.03184 30.5876C4.36625 31.569 5.08715 34.6122 5.20646 34.7803C5.32577 34.9483 5.73243 36.5061 5.72235 36.7817C5.38627 38.0033 4.76451 38.2907 4.59479 38.4705C4.42674 38.6503 4.27214 38.6621 4.26038 39.0586C4.03184 39.5981 5.93744 39.3342 5.93744 39.3342C6.95578 39.1662 7.30363 37.9328 7.39773 37.8118C7.51536 37.753 7.59938 37.6555 7.65652 37.5698C7.67332 37.6471 7.6834 37.7277 7.70861 37.8C7.66156 38.0269 7.49352 38.6738 7.37421 38.8419C7.2549 39.0099 7.14567 39.4401 7.14567 39.7879C7.14567 40.1358 7.61451 40.1358 8.6194 40.0518C9.8898 40.0047 9.75705 39.4771 9.73352 39.393C9.70831 39.309 9.82931 38.9141 9.8041 38.2924C9.7957 38.1411 9.76377 38.0185 9.73016 37.8958H9.73184C10.6174 36.7447 9.99399 36.3145 9.99399 35.9062C10.7838 35.0441 10.809 33.5821 11.1451 32.3134C11.4812 31.043 11.2409 28.4316 11.1686 28.072C10.9048 27.9527 11.0728 26.6823 11.1199 26.2521C11.135 26.1211 11.1249 25.9026 11.1081 25.6673C11.5265 25.6438 11.8072 25.6119 11.9265 25.59C12.1819 25.543 12.0223 22.1721 12.0374 21.8377C12.0542 21.5016 12.0374 17.3324 11.8777 17.0619C11.7097 16.0385 11.7416 14.921 11.7568 14.553C11.7719 14.185 11.9315 12.8928 12.0609 13.1952C12.1096 14.5362 12.4121 15.2874 12.5398 15.6386C12.6692 15.9898 12.6037 18.1794 12.6524 18.786C12.6995 19.3926 12.6037 20.1421 12.7953 20.3186C12.8003 20.3152 12.8053 20.3152 12.8104 20.3135C12.7667 20.4009 12.7297 20.4816 12.7163 20.5269C12.6692 20.6866 12.4777 20.8781 12.4777 21.389C12.2542 21.757 12.3029 22.0914 12.6054 22.0444C12.9095 21.9973 13.0204 21.6293 13.0204 21.6293C13.0204 21.6293 13.4825 22.0931 13.1481 22.5552C13.0204 22.6191 12.7482 22.8258 12.9885 22.9232C12.8457 23.0677 12.6054 23.0341 12.5583 23.3064C12.4155 23.5769 12.5415 23.8172 12.8927 23.6895C13.2439 23.5618 13.659 23.2744 13.8354 23.098C14.0102 22.9232 14.4908 22.1401 14.4908 21.757C14.4908 21.4344 14.5916 20.984 14.6908 20.7857C14.7613 20.8563 14.8185 20.9218 14.842 20.9756C15.1109 21.1336 14.9042 17.7307 14.9042 16.662ZM6.3105 28.4451C6.44157 28.3006 6.80118 28.1224 6.74069 26.3849C6.73397 26.158 6.82303 25.827 6.91209 25.5884C7.27842 25.6069 7.65988 25.6237 8.00941 25.6371C7.99092 25.8791 7.98084 26.2017 8.09679 26.5176C8.22786 27.0201 8.14384 28.5173 8.50345 28.9862C8.51521 29.129 8.44296 29.5004 8.62276 29.6684C8.53874 29.8365 8.22786 30.5305 8.44296 32.2916C8.41943 32.8428 8.23962 34.5433 8.46648 34.7231C8.3959 34.987 8.23963 35.155 8.05982 35.3214C8.05982 35.3214 7.86825 34.95 7.89178 34.7937C7.91698 34.6391 8.30012 34.4459 7.88001 34.0157C7.45991 33.5838 7.41286 33.7888 7.35404 32.9974C7.29355 32.2076 6.91041 30.1944 6.83815 30.0381C6.76589 29.8819 6.77766 29.5592 6.44157 29.2114C6.63482 28.8887 6.17943 28.5896 6.3105 28.4451Z" fill="#232F3E"/>
</svg>

<svg width="15" height="41" fill="none" xmlns="http://www.w3.org/2000/svg"><path d="M14.904 16.662c.207-1.15-.287-2.73-.351-3.499.047-1.102-.479-1.996-.415-2.364.176-.351 0-.958-.128-1.645-.047-1.773-.398-1.773-.622-1.837-.448-.449-2.46-1.215-2.604-1.215-.143 0-.894-.894-.941-1.07.191-.56-.326-.901-.494-.756.336.127.222 1.077.205 1.33-.145-.112-.543-.191-.67.143-.128.672-.48 1.47-.64 1.758-.159.287-.83 1.996-1.18 2.716-.081-.273-.192-1.247-.32-1.614-.336-.304-.717-1.102-.781-1.404.047-.352-.145-1.614-.064-1.837a6.04 6.04 0 00.16-.639v.004l.001-.002.015.06s.318.674.733.896c.191.177.245.212.348.217.255.012.627-.104.946-.392.317-.285.502-.282 1.146-1.048v-.01c.037-.014.028-.14.064-.202.025-.042.03-.197.028-.344.111.077.27-.273.358-.615.15-.511-.062-.726-.208-.752a.441.441 0 00-.082-.181c-.006-.003-.02-.039-.032-.06a4.89 4.89 0 00.41-.574C10.096.952 8.94.473 8.619.36 8.398.283 7.828.206 7.362.187 7.36.138 7.236.098 7.082.098c-.156 0-.284.042-.284.092 0 .009.02.014.027.022-.635.17-1.387.911-1.498 1.037-.11.128-.415.264-.391.71.087.871.232.888.47.935 0 .049.137.128.137.128.003.002.01-.005.013-.005.002.33.034.53.14.516 0 .16.304 1.038.36 1.198 0 0-.512.128-.624.4.095.032.27.734.223.751-.047.017-.496-.047-.496-.047s-.032.351.032.575c-.813.269-1.804.988-2.075 1.164-.27.175-.064 1.869-.207 2.331-.144.447-.368 1.869-.368 2.284 0 .415-.556 1.99-.615 2.468-.06.48-.719 2.864-.791 3.223-.072.36-.264 1.845-.348 2.145-.082.294.208.425.218.428-.048.35-.085.724-.047.857.08.27.27.99.368 1.213.096.224.752 1.086 1.022.926.08-.11.064-.255.064-.255s.336-.047 0-.368c.223-.096.208-.352-.239-.528-.334-.143-.415-.287-.35-.91.095-.097.286-.144.286-.144s.209.752.463.752c.255 0 .35-.256.223-.592-.123-.323-.015-.788-.15-1.065.007.003.019.013.02.013.061 0 .337-.808.612-1.384-.107.695.168 2.576.096 2.959-.072.383-.275 2.994-.275 3.27 0 .049.079.087.186.12-.12.745-.047 2.374.1 2.587.169.24.313 1.7.648 2.684.334.981 1.055 4.024 1.174 4.192.12.168.526 1.726.516 2.002-.336 1.221-.957 1.509-1.127 1.689-.168.18-.323.191-.335.588-.228.54 1.677.275 1.677.275 1.019-.168 1.367-1.401 1.46-1.522a.696.696 0 00.26-.242c.016.077.026.158.052.23-.047.227-.215.874-.335 1.042-.12.168-.228.598-.228.946s.469.348 1.473.264c1.27-.047 1.138-.575 1.115-.659-.026-.084.095-.479.07-1.1a1.81 1.81 0 00-.074-.397h.002c.885-1.151.262-1.581.262-1.99.79-.862.815-2.324 1.151-3.593.336-1.27.096-3.881.024-4.241-.264-.12-.096-1.39-.05-1.82.016-.13.006-.35-.01-.585.418-.023.698-.055.818-.077.255-.047.095-3.418.11-3.752.017-.336 0-4.506-.16-4.776-.167-1.024-.135-2.141-.12-2.509.015-.368.175-1.66.304-1.358.049 1.341.351 2.092.479 2.444.13.35.064 2.54.112 3.147.048.607-.048 1.356.143 1.533.005-.004.01-.004.015-.005a1.84 1.84 0 00-.094.213c-.047.16-.238.351-.238.862-.224.368-.175.702.127.655.304-.047.415-.415.415-.415s.463.464.128.926c-.128.064-.4.27-.16.368-.142.145-.383.111-.43.383-.143.27-.017.511.335.383.35-.127.766-.415.942-.591.175-.175.656-.958.656-1.341 0-.323.1-.773.2-.971.07.07.127.136.151.19.269.158.062-3.245.062-4.314zM6.311 28.445c.13-.144.49-.323.43-2.06-.007-.227.082-.558.171-.797.366.019.748.036 1.097.05-.018.241-.028.564.088.88.13.502.047 2 .406 2.468.012.143-.06.514.12.682-.084.169-.395.863-.18 2.624-.024.55-.203 2.251.023 2.431-.07.264-.226.432-.406.598 0 0-.192-.371-.168-.527.025-.155.408-.348-.012-.778-.42-.432-.467-.227-.526-1.019-.06-.79-.444-2.803-.516-2.959-.072-.156-.06-.479-.396-.827.193-.322-.263-.621-.131-.766z" fill="#232F3E"/></svg>
